X: 480
T: Bûselik Seyir
C: Şefik Gürmeriç
O: Turkey
F: http://compmusic.upf.edu/node/140
N: buselik--seyir--sofyan--1--sefik_gurmeric
N: makam= buselik
N: form= seyir
N: usul= sofyan = 4/4
M: 4/4
L: 1/16
K: C    
Q: 1/4=60
%%MIDI tuningsystem comma53
A6B2 c4 d2e2  | d2c2 c2B2 B2A2 A2^G2  | \
w:   |   | 
A4 B2c2 B2d2 c2B2  | B3A ^G2A2 B4 z4  | 
w:   |   | 
z2c4B2 A4 e4  | d2f2 e2d2 c2B2 A2G2  | \
w:   |   | 
z2A4B2 c2d2 _7/8e2d2  | g2^f2 _7/8e2d2 c2B2 c4  | 
w:   |   | 
z4 d2e2 d4 g4  | ^f2a2 g2=f2 e4 z4  | \
w:   |   | 
d4 e2f2 e4 d4  | B2d2 c2B2 B2A2 A2^G2  | 
w:   |   | 
A16  | |


